X:1
T:Daddy, Don't You Walk So fast
T:Daddy don't you walk so fast
T:Peter Callander, Geoff Stephens
C:Peter Callander
Z:All Rights Reserved
L:1/8
M:4/4
K:Eb
V:1 treble 
%%MIDI program 4
V:1
 z4 z2 z B, |:"Eb" EEEE EEEE |"Fm7" FF- F4 EF |"Eb" GGGG BBGE |"Fm7" F6- FE |"Eb7" BBBc B A2 G/B/ | %6
w: The|love be- tween the two of us was|dy- ing * and it|got so bad I knew I had to|leave * But|half- way down that high- way when I|
"Ab" ABAG"F7" F3 E |"Eb" GGGG"Fm7" AA"Bb7"GF |"Eb" E4"Fm7" E2"B7" F2 |"Eb" GBBG B c2 B- | B8 | %11
w: turned a- round I saw my|lit- tle daugh- ter run- ning af- ter|me cry- in|dad- dy don't you walk so fast||
"Ab" ceec e f2 e- | e6 ef |"Eb" g g2 f-"G7" f2 gf |"Cm" eceg"F7" f4 |"Eb" gfge"Bb7" f f2 e- | %16
w: Dad- dy don't you walk so fast|* Dad- dy|slow down some * cos your|mak- ing me run *|dad- dy don't you walk so fast|
"Eb" e8 |"Fm7" z8 |"Eb" z8 |"Fm7" z4 z2 z B, :|"Eb" e4"B7" z2 z =B, |[K:E]"E" EEEE EEEE | %22
w: |||It|* If|on- ly for the sake of my sweet|
"Fm7" FF- F4 EF |"E" GGGG BBGE |"Fm7" F6- FE |"E7" BBBc B A2 G/B/ |"A" ABAG"F7" F3 E | %27
w: daugh- ter * I just|had to turn back home right there and|then * and|try to start a new life with the|moth- er of my child I|
"E" GGGG"Fm7" AA"B7"GF |"E" E3 B,"Fm7" E2"B7" F2 ||"E" GBBG B c2 B- | B8 |"A" ceec e f2 e- | %32
w: could- n't bear to hear those words a-|gain as she said|Da- dy don't you walk so fast||dad- dy don't you walk so fast|
 e6 ef |"E" g g2 f-"G#7" f2 gf |"C#7" ece"F#7"g f4 |"E" gfge"B7" f f2 e- |"E" e4"F#m" e2"B7" f2 | %37
w: * dad- dy|slow down some * 'cos you're|mak- ing me run *|Dad- dy don't you walk so fast|* won't you|
"E" g g2 f-"G#7" f2 gf |"C#m" ece"F#7"g f4 |"E" gfge"B7" f f2 e- |"A" e8- | e8- | e8 |] %43
w: slow down some * cos you're|mak- in me run *|Dad- dy don't you walk so fast.||||

